assets/images/fingerprint.svg

<svg width="20" height="20" viewBox="0 0 20 20" fill="none" xmlns="http://www.w3.org/2000/svg">
<path d="M11 9V8C11 7.44772 10.5523 7 10 7C9.44772 7 9 7.44772 9 8V13.459C8.99982 15.7027 7.3773 17.6175 5.16406 17.9863C4.61941 18.0769 4.10445 17.7087 4.01367 17.1641C3.92307 16.6194 4.29127 16.1044 4.83594 16.0137C6.08463 15.8054 6.99982 14.7249 7 13.459V8C7 6.34315 8.34315 5 10 5C11.6569 5 13 6.34315 13 8V9C13 9.55229 12.5523 10 12 10C11.4477 10 11 9.55229 11 9Z" fill="#A2A9A3"/>
<path d="M11 12.6904V12.5C11 11.9479 11.4479 11.5002 12 11.5C12.5523 11.5 13 11.9477 13 12.5V12.6904C13 14.3789 12.5561 16.0378 11.7119 17.5C11.4358 17.9783 10.824 18.1423 10.3457 17.8662C9.86744 17.5901 9.70341 16.9783 9.97949 16.5C10.6482 15.3418 11 14.0278 11 12.6904Z" fill="#A2A9A3"/>
<path d="M15 10.8379V8C15 5.23858 12.7614 3 10 3C7.23858 3 5 5.23858 5 8V13C5 13.5523 4.55228 14 4 14C3.44772 14 3 13.5523 3 13V8C3 4.13401 6.13401 1 10 1C13.866 1 17 4.13401 17 8V10.8379C17 13.0398 16.6445 15.2275 15.9482 17.3164C15.7735 17.8402 15.2074 18.1229 14.6836 17.9482C14.1598 17.7735 13.8771 17.2074 14.0518 16.6836C14.68 14.7987 15 12.8247 15 10.8379Z" fill="#A2A9A3"/>
</svg>

<svg xmlns="http://www.w3.org/2000/svg" width="20" height="20" fill="none" viewBox="0 0 20 20"><path fill="#a2a9a3" d="M11 9V8a1 1 0 1 0-2 0v5.459a4.59 4.59 0 0 1-3.836 4.527 1 1 0 0 1-.328-1.972A2.59 2.59 0 0 0 7 13.459V8a3 3 0 0 1 6 0v1a1 1 0 1 1-2 0"/><path fill="#a2a9a3" d="M11 12.69v-.19a1 1 0 0 1 2 0v.19a9.6 9.6 0 0 1-1.288 4.81 1 1 0 0 1-1.733-1A7.6 7.6 0 0 0 11 12.69"/><path fill="#a2a9a3" d="M15 10.838V8A5 5 0 0 0 5 8v5a1 1 0 1 1-2 0V8a7 7 0 0 1 14 0v2.838c0 2.202-.355 4.39-1.052 6.478a1 1 0 1 1-1.896-.632A18.5 18.5 0 0 0 15 10.838"/></svg>
